X:0064
T:The Marquis of Granby's delight.
M:2/4
L:1/8
Q:1/4=84
I: :: ::
% D G A B c d e ^f g a
Z:Jack Campin * www.campin.me.uk * 2009
K:G
G/A/|BGBG |ADD`A/B/ |cAcA|(B/c/d/B/) Gd    |e>def| gf/e/       dc|B2 TA2|G3:|
d   |g>agf|e3 d     |eaag| f3        (e/f/)|gfed |(e/d/)(c/B/) Ag|f2 Te2|d3
d   |g>agf|e3 d     |edgB| A3         G    |
     BGBG |ADD(A/B/)|cAcA| B/c/d/B/  Gd    |edef | gf/e/       dc|B2 TA2|G3:|
<end>
<start>
